azure-patterns/svg-square-circle-plus.svg

<svg xmlns="http://www.w3.org/2000/svg" viewBox="0 0 156 156">
                                
                            
<path d="M7.50293 59.4287L7.50293 148.448L96.522 148.448L96.522 59.4287L7.50293 59.4287Z" fill="#0078D4"></path>
<path d="M148.522 59.4533C148.522 88.1523 125.246 111.428 96.5465 111.428H44.5713V59.4533C44.5713 30.7542 67.8475 7.47803 96.5465 7.47803C125.246 7.47803 148.522 30.7542 148.522 59.4533Z" fill="#50E6FF"></path>
<path d="M96.5218 59.478H44.5713V111.429H96.5218V59.478Z" fill="black"></path>
<path d="M89.118 81.739H74.2608V66.8818H66.8322V81.739H51.9751V89.1676H66.8322V104.025H74.2608V89.1676H89.118V81.739Z" fill="#50E6FF"></path>
</svg>

<svg xmlns="http://www.w3.org/2000/svg" viewBox="0 0 156 156"><path d="M7.503 59.429v89.019h89.019v-89.02H7.502z" fill="#0078D4"/><path d="M148.522 59.453c0 28.7-23.276 51.975-51.975 51.975H44.57V59.453c0-28.699 23.276-51.975 51.975-51.975 28.7 0 51.976 23.276 51.976 51.975z" fill="#50E6FF"/><path d="M96.522 59.478h-51.95v51.951h51.95V59.478z"/><path d="M89.118 81.739H74.261V66.882h-7.429v14.857H51.975v7.429h14.857v14.857h7.429V89.168h14.857v-7.429z" fill="#50E6FF"/></svg>
